flaticon/business/credit-card-4.svg

<svg xmlns="http://www.w3.org/2000/svg" width="32" height="32" viewBox="0 0 24 24">
    <path d="M 19.199219 5.601562 C 18.691406 5.601562 18.210938 5.738281 17.800781 5.980469 C 17.386719 5.738281 16.910156 5.601562 16.398438 5.601562 C 14.855469 5.601562 13.601562 6.855469 13.601562 8.398438 C 13.601562 9.945312 14.855469 11.199219 16.398438 11.199219 C 16.910156 11.199219 17.386719 11.058594 17.800781 10.820312 C 18.210938 11.058594 18.691406 11.199219 19.199219 11.199219 C 20.742188 11.199219 22 9.945312 22 8.398438 C 22 6.855469 20.742188 5.601562 19.199219 5.601562 Z M 18.398438 8.398438 C 18.398438 8.957031 18.167969 9.460938 17.800781 9.824219 C 17.429688 9.460938 17.199219 8.957031 17.199219 8.398438 C 17.199219 7.84375 17.429688 7.339844 17.800781 6.976562 C 18.167969 7.339844 18.398438 7.84375 18.398438 8.398438 Z M 14.398438 8.398438 C 14.398438 7.296875 15.296875 6.398438 16.398438 6.398438 C 16.652344 6.398438 16.890625 6.453125 17.113281 6.539062 C 16.671875 7.03125 16.398438 7.683594 16.398438 8.398438 C 16.398438 9.113281 16.671875 9.765625 17.113281 10.261719 C 16.890625 10.347656 16.652344 10.398438 16.398438 10.398438 C 15.296875 10.398438 14.398438 9.503906 14.398438 8.398438 Z M 19.199219 10.398438 C 18.949219 10.398438 18.707031 10.347656 18.484375 10.261719 C 18.929688 9.765625 19.199219 9.113281 19.199219 8.398438 C 19.199219 7.683594 18.929688 7.03125 18.484375 6.539062 C 18.707031 6.453125 18.949219 6.398438 19.199219 6.398438 C 20.304688 6.398438 21.199219 7.296875 21.199219 8.398438 C 21.199219 9.503906 20.304688 10.398438 19.199219 10.398438 Z M 19.199219 10.398438"/>
    <path d="M 22.3125 3.199219 L 1.6875 3.199219 C 0.757812 3.199219 0 3.957031 0 4.886719 L 0 19.113281 C 0 20.042969 0.757812 20.800781 1.6875 20.800781 L 22.3125 20.800781 C 23.242188 20.800781 24 20.042969 24 19.113281 L 24 4.886719 C 24 3.957031 23.242188 3.199219 22.3125 3.199219 Z M 23.199219 19.113281 C 23.199219 19.601562 22.800781 20 22.3125 20 L 1.6875 20 C 1.199219 20 0.800781 19.601562 0.800781 19.113281 L 0.800781 4.886719 C 0.800781 4.398438 1.199219 4 1.6875 4 L 22.3125 4 C 22.800781 4 23.199219 4.398438 23.199219 4.886719 Z M 23.199219 19.113281"/>
    <path d="M2.398438 7.199219L6 7.199219C6.222656 7.199219 6.398438 7.019531 6.398438 6.800781 6.398438 6.578125 6.222656 6.398438 6 6.398438L2.398438 6.398438C2.179688 6.398438 2 6.578125 2 6.800781 2 7.019531 2.179688 7.199219 2.398438 7.199219zM11.199219 6.398438L7.601562 6.398438C7.378906 6.398438 7.199219 6.578125 7.199219 6.800781 7.199219 7.019531 7.378906 7.199219 7.601562 7.199219L11.199219 7.199219C11.421875 7.199219 11.601562 7.019531 11.601562 6.800781 11.601562 6.578125 11.421875 6.398438 11.199219 6.398438zM2.398438 9.199219L2.800781 9.199219C3.019531 9.199219 3.199219 9.019531 3.199219 8.800781 3.199219 8.578125 3.019531 8.398438 2.800781 8.398438L2.398438 8.398438C2.179688 8.398438 2 8.578125 2 8.800781 2 9.019531 2.179688 9.199219 2.398438 9.199219zM4.398438 8.398438C4.179688 8.398438 4 8.578125 4 8.800781 4 9.019531 4.179688 9.199219 4.398438 9.199219L5.199219 9.199219C5.421875 9.199219 5.601562 9.019531 5.601562 8.800781 5.601562 8.578125 5.421875 8.398438 5.199219 8.398438zM7.601562 8.800781C7.601562 8.578125 7.421875 8.398438 7.199219 8.398438L6.800781 8.398438C6.578125 8.398438 6.398438 8.578125 6.398438 8.800781 6.398438 9.019531 6.578125 9.199219 6.800781 9.199219L7.199219 9.199219C7.421875 9.199219 7.601562 9.019531 7.601562 8.800781zM9.601562 9.199219C9.820312 9.199219 10 9.019531 10 8.800781 10 8.578125 9.820312 8.398438 9.601562 8.398438L8.800781 8.398438C8.578125 8.398438 8.398438 8.578125 8.398438 8.800781 8.398438 9.019531 8.578125 9.199219 8.800781 9.199219zM10.921875 8.515625C10.84375 8.59375 10.800781 8.691406 10.800781 8.800781 10.800781 8.90625 10.84375 9.007812 10.914062 9.085938 10.992188 9.15625 11.097656 9.199219 11.199219 9.199219 11.304688 9.199219 11.40625 9.15625 11.484375 9.085938 11.554688 9.007812 11.601562 8.902344 11.601562 8.800781 11.601562 8.695312 11.554688 8.59375 11.484375 8.519531 11.335938 8.367188 11.0625 8.367188 10.921875 8.515625zM2 18L6.398438 18 6.398438 14.800781 2 14.800781zM2.800781 15.601562L5.601562 15.601562 5.601562 17.199219 2.800781 17.199219zM7.199219 18L11.601562 18 11.601562 14.800781 7.199219 14.800781zM8 15.601562L10.800781 15.601562 10.800781 17.199219 8 17.199219zM12.398438 18L16.800781 18 16.800781 14.800781 12.398438 14.800781zM13.199219 15.601562L16 15.601562 16 17.199219 13.199219 17.199219zM17.601562 18L22 18 22 14.800781 17.601562 14.800781zM18.398438 15.601562L21.199219 15.601562 21.199219 17.199219 18.398438 17.199219zM18.398438 15.601562"/>
</svg>

<svg xmlns="http://www.w3.org/2000/svg" width="32" height="32" viewBox="0 0 24 24">
    <path d="M19.2 5.602c-.509 0-.99.136-1.4.378a2.76 2.76 0 0 0-1.402-.378 2.8 2.8 0 0 0 0 5.597 2.8 2.8 0 0 0 1.403-.379c.41.239.89.38 1.398.38C20.742 11.2 22 9.944 22 8.397a2.802 2.802 0 0 0-2.8-2.796zm-.802 2.796a2 2 0 0 1-.597 1.426 1.988 1.988 0 0 1 0-2.847c.367.363.597.867.597 1.421zm-4 0c0-1.101.899-2 2-2 .254 0 .493.055.715.141a2.78 2.78 0 0 0 0 3.723c-.222.086-.46.136-.715.136-1.101 0-2-.894-2-2zm4.801 2c-.25 0-.492-.05-.715-.136a2.779 2.779 0 0 0 0-3.723c.223-.086.465-.14.715-.14a1.999 1.999 0 1 1 0 4zm0 0"/>
    <path d="M22.313 3.2H1.688A1.69 1.69 0 0 0 0 4.886v14.226c0 .93.758 1.688 1.688 1.688h20.625A1.69 1.69 0 0 0 24 19.113V4.887a1.69 1.69 0 0 0-1.688-1.688zm.886 15.913a.889.889 0 0 1-.887.887H1.688a.889.889 0 0 1-.886-.887V4.887c0-.489.398-.887.886-.887h20.625c.489 0 .887.398.887.887zm0 0"/>
    <path d="M2.398 7.2H6c.223 0 .398-.18.398-.4A.398.398 0 0 0 6 6.399H2.398a.401.401 0 0 0 0 .801zm0 0M11.2 6.398H7.601a.401.401 0 0 0 0 .8l3.597.001a.401.401 0 1 0 0-.8zm0 0M2.398 9.2h.403a.4.4 0 0 0 0-.802h-.403a.401.401 0 0 0 0 .801zm0 0M4.398 8.398a.401.401 0 0 0 0 .801H5.2a.401.401 0 1 0 0-.8zm0 0M7.602 8.8a.402.402 0 0 0-.403-.402h-.398a.401.401 0 0 0 0 .8l.398.001c.223 0 .403-.18.403-.398zm0 0M9.602 9.2a.4.4 0 0 0 0-.802H8.8a.401.401 0 0 0 0 .8zm0 0M10.922 8.516a.396.396 0 0 0-.121.285.43.43 0 0 0 .113.285c.078.07.184.113.285.113a.43.43 0 0 0 .285-.113.442.442 0 0 0 .118-.285.417.417 0 0 0-.118-.281c-.148-.153-.421-.153-.562-.004zm0 0M2 18h4.398v-3.2H2zm.8-2.398h2.802v1.597H2.8zm0 0M7.2 18h4.402v-3.2H7.199zm.8-2.398h2.8v1.597H8zm0 0M12.398 18h4.403v-3.2h-4.403zm.801-2.398H16v1.597h-2.8zm0 0M17.602 18H22v-3.2h-4.398zm.796-2.398H21.2v1.597h-2.8zm0 0"/>
</svg>
